assets/First quarter moon face/Flat/first_quarter_moon_face_flat.svg

<svg width="32" height="32" viewBox="0 0 32 32" fill="none" xmlns="http://www.w3.org/2000/svg">
<path d="M15.4938 18.4168C14.9057 20.7855 13.7053 23.0118 11.9064 24.8182C10.6364 26.0982 9.16644 27.0782 7.59644 27.7582C7.09644 27.9782 7.09644 28.6782 7.59644 28.8882C12.9464 31.1382 19.3964 29.9282 23.5264 25.2582C28.0264 20.1682 28.1764 12.3482 23.8464 7.10821C20.3364 2.85821 14.9964 1.26821 10.1164 2.30821C9.59644 2.41821 9.47644 3.11821 9.91644 3.41821C11.2064 4.29821 12.3764 5.40821 13.3564 6.79821C14.7585 8.79292 15.5795 11.0749 15.8317 13.4016C15.8456 13.5878 15.8547 13.7847 15.8565 13.9883C15.8644 14.7698 15.274 15.2709 14.7938 15.6785C14.6657 15.7872 14.5455 15.8893 14.4465 15.9883C14.0665 16.3783 14.0665 17.0083 14.4565 17.3883L15.4938 18.4168Z" fill="#FCD53F"/>
<path d="M15.1264 5.08826C16.5458 5.08826 17.7679 4.24334 18.3171 3.02902C16.1947 2.16549 13.9042 1.84619 11.6591 2.06833C11.8931 3.77418 13.3563 5.08826 15.1264 5.08826ZM26.1678 20.7839C26.9682 18.5524 27.1927 16.1453 26.8351 13.8154C26.7204 13.804 26.6041 13.7982 26.4865 13.7982C24.5535 13.7982 22.9865 15.3652 22.9865 17.2982C22.9865 19.1238 24.3841 20.6229 26.1678 20.7839ZM15.5565 29.0783C16.9593 29.0783 18.0965 27.9411 18.0965 26.5383C18.0965 25.1355 16.9593 23.9983 15.5565 23.9983C14.1537 23.9983 13.0165 25.1355 13.0165 26.5383C13.0165 27.9411 14.1537 29.0783 15.5565 29.0783ZM21.1764 6.5783C21.1764 7.44539 20.4735 8.1483 19.6064 8.1483C18.7393 8.1483 18.0364 7.44539 18.0364 6.5783C18.0364 5.71121 18.7393 5.0083 19.6064 5.0083C20.4735 5.0083 21.1764 5.71121 21.1764 6.5783Z" fill="#F9C23C"/>
<path d="M20.8665 8.53821C20.8665 8.26207 21.0903 8.03821 21.3665 8.03821C23.2815 8.03821 24.8465 9.59097 24.8465 11.5182C24.8465 11.7944 24.6226 12.0182 24.3465 12.0182C24.0703 12.0182 23.8465 11.7944 23.8465 11.5182C23.8465 10.1454 22.7314 9.03821 21.3665 9.03821C21.0903 9.03821 20.8665 8.81435 20.8665 8.53821ZM19.1689 18.0453C19.5792 18.1019 19.866 18.4804 19.8094 18.8908C19.6386 20.1285 18.5744 21.0683 17.3164 21.0683C16.9022 21.0683 16.5664 20.7325 16.5664 20.3183C16.5664 19.9041 16.9022 19.5683 17.3164 19.5683C17.8184 19.5683 18.2542 19.1881 18.3234 18.6858C18.38 18.2755 18.7586 17.9887 19.1689 18.0453ZM20.4464 11.0083C19.1741 11.0083 18.0926 11.8343 17.714 12.9836C17.5844 13.3771 17.7983 13.8011 18.1917 13.9306C18.5851 14.0602 19.0091 13.8464 19.1387 13.453C19.3201 12.9023 19.8386 12.5083 20.4464 12.5083C21.0334 12.5083 21.5292 12.8652 21.7282 13.3723C21.8795 13.7579 22.3147 13.9478 22.7003 13.7965C23.0859 13.6452 23.2758 13.2099 23.1245 12.8243C22.7035 11.7514 21.6593 11.0083 20.4464 11.0083Z" fill="#321B41"/>
</svg>

<svg xmlns="http://www.w3.org/2000/svg" width="32" height="32" fill="none"><path fill="#FCD53F" d="M15.494 18.417a13.732 13.732 0 0 1-7.898 9.341c-.5.22-.5.92 0 1.13 5.35 2.25 11.8 1.04 15.93-3.63 4.5-5.09 4.65-12.91.32-18.15-3.51-4.25-8.85-5.84-13.73-4.8-.52.11-.64.81-.2 1.11 1.29.88 2.46 1.99 3.44 3.38a14.115 14.115 0 0 1 2.476 6.604c.014.186.023.383.024.586.008.782-.582 1.283-1.062 1.69a5.94 5.94 0 0 0-.348.31.993.993 0 0 0 .01 1.4l1.038 1.029Z"/><path fill="#F9C23C" d="M15.126 5.088a3.5 3.5 0 0 0 3.191-2.059 14.017 14.017 0 0 0-6.658-.96 3.5 3.5 0 0 0 3.467 3.02Zm11.042 15.696c.8-2.232 1.025-4.639.667-6.969a3.5 3.5 0 1 0-.667 6.968Zm-10.611 8.294a2.54 2.54 0 1 0 0-5.08 2.54 2.54 0 0 0 0 5.08Zm5.62-22.5a1.57 1.57 0 1 1-3.14 0 1.57 1.57 0 0 1 3.14 0Z"/><path fill="#321B41" d="M20.866 8.538a.5.5 0 0 1 .5-.5 3.481 3.481 0 0 1 3.48 3.48.5.5 0 1 1-1 0 2.481 2.481 0 0 0-2.48-2.48.5.5 0 0 1-.5-.5Zm-1.697 9.507a.75.75 0 0 1 .64.846 2.526 2.526 0 0 1-2.493 2.177.75.75 0 0 1 0-1.5c.502 0 .938-.38 1.007-.882a.75.75 0 0 1 .846-.64Zm1.277-7.037a2.877 2.877 0 0 0-2.732 1.976.75.75 0 1 0 1.425.469c.181-.55.7-.945 1.307-.945.587 0 1.083.357 1.282.864a.75.75 0 1 0 1.396-.548 2.869 2.869 0 0 0-2.678-1.816Z"/></svg>
